public/images/icons/cog.svg

<svg width="32" height="32" viewBox="0 0 32 32" fill="none" xmlns="http://www.w3.org/2000/svg">
<g clip-path="url(#clip0_16607_2)">
<path fill-rule="evenodd" clip-rule="evenodd" d="M17.9065 0.75C18.6574 0.750172 19.249 1.34717 19.4212 2.05371C20.2159 5.31574 23.9322 7.23878 27.2981 6.23535C28.0007 6.02584 28.8096 6.21902 29.1868 6.8291L31.0579 9.85352C31.4513 10.49 31.2059 11.3053 30.6399 11.8057C28.1177 14.0358 28.1177 17.9642 30.6399 20.1943C31.2059 20.6948 31.4504 21.51 31.0569 22.1465L29.1868 25.1709C28.8096 25.781 28.0007 25.9742 27.2981 25.7646C23.9322 24.7612 20.2159 26.6842 19.4212 29.9463C19.249 30.6528 18.6574 31.2498 17.9065 31.25H14.094C13.343 31.25 12.7517 30.6529 12.5794 29.9463C11.7847 26.6841 8.06747 24.7609 4.70146 25.7646C3.99886 25.9741 3.18999 25.781 2.81279 25.1709L0.942671 22.1465C0.549195 21.5101 0.793788 20.6948 1.35966 20.1943C3.88196 17.9642 3.88198 14.0358 1.35966 11.8057C0.793748 11.3052 0.549183 10.4899 0.942671 9.85352L2.81279 6.8291C3.19 6.21901 3.99885 6.02584 4.70146 6.23535C8.06747 7.23904 11.7847 5.31587 12.5794 2.05371C12.7517 1.34713 13.343 0.75 14.094 0.75H17.9065ZM16.0003 11.2676C13.3865 11.2676 11.2669 13.3862 11.2669 16C11.2669 18.6138 13.3865 20.7324 16.0003 20.7324C18.614 20.7323 20.7327 18.6137 20.7327 16C20.7327 13.3863 18.614 11.2677 16.0003 11.2676Z" fill="#9394A0" fill-opacity="0.15" stroke="#9394A0" stroke-width="1.5" stroke-linecap="round" stroke-linejoin="round"/>
</g>
<defs>
<clipPath id="clip0_16607_2">
<rect width="32" height="32" fill="white"/>
</clipPath>
</defs>
</svg>

<svg xmlns="http://www.w3.org/2000/svg" width="32" height="32" fill="none"><g clip-path="url(#a)"><path fill="#9394a0" fill-opacity=".15" fill-rule="evenodd" stroke="#9394a0" stroke-linecap="round" stroke-linejoin="round" stroke-width="1.5" d="M17.907.75c.75 0 1.342.597 1.514 1.304.795 3.262 4.511 5.185 7.877 4.181.703-.21 1.512-.016 1.889.594l1.87 3.025c.394.636.149 1.451-.417 1.952a5.596 5.596 0 0 0 0 8.388c.566.5.81 1.316.417 1.953l-1.87 3.024c-.377.61-1.186.803-1.889.594-3.366-1.004-7.082.92-7.877 4.181-.172.707-.764 1.304-1.514 1.304h-3.813c-.751 0-1.342-.597-1.515-1.304-.794-3.262-4.512-5.185-7.878-4.181-.702.21-1.511.016-1.888-.594l-1.87-3.024c-.394-.637-.15-1.452.417-1.953a5.596 5.596 0 0 0 0-8.388c-.566-.5-.81-1.316-.417-1.952l1.87-3.025c.377-.61 1.186-.803 1.888-.594 3.366 1.004 7.084-.92 7.878-4.181.173-.707.764-1.304 1.515-1.304zM16 11.268a4.733 4.733 0 1 0 0 9.466 4.733 4.733 0 0 0 0-9.466" clip-rule="evenodd"/></g><defs><clipPath id="a"><path fill="#fff" d="M0 0h32v32H0z"/></clipPath></defs></svg>
